X: 21783
T: ALICE GRAY
C: Copyright. Mrs. P. Millard.
Q: "Moderate."
%R: reel
B: W. Hamilton "Universal Tune-Book" Vol. 2 Glasgow 1846 p.178 #3
S: http://s3-eu-west-1.amazonaws.com/itma.dl.printmaterial/book_pdfs/hamiltonvol2web.pdf
Z: 2016 John Chambers <jc:trillian.mit.edu>
M: 2/4
L: 1/16
K: C
% - - - - - - - - - - - - - - - - - - - - - - - - -
(EF) |\
G3E c3A | G3E E2E2 |\
D2(dc) (BA)(GF) | (F4 E2) GE |\
C3D E3F | G2 c4 c2 |\
BA3 G2^F2 | G4 z2G2 |\
d3B G3F | E3F G3B |
c3E {E}D3C | (C4 B,2) (3(GFD) |\
C3D E3F | GG3 z2FE |\
D2(dc) (BA)(GF) | (F4 E2) GG |\
A3 A B3B | cHe3 c2c2 |\
d3c d3e | c4 z2 |]
% - - - - - - - - - - - - - - - - - - - - - - - - -

%%sep 1 1 500
%%sep 1 1 500

